X:1
T:Title
%%score { 1 | 2 }
L:1/8
Q:1/4=100
M:4/4
K:G
V:1 treble nm="Grand Piano"
V:2 bass 
V:1
 [DB]2 [CA]2 [B,G]2 [B,D]2 | [CE]2 [CG]2 [B,G]4 | AAAA G2 A2 | B6 z2 | [DB]2 [CA]2 [B,G]2 [B,D]2 | %5
w: W.~J.~Kirkpatrick * * *|||||
 [CE]2 [CG]2 [B,G]4 | AAAA B2 A2 | [B,G]6 z2 | B2 d2 d4 | [Ec]2 [CE]2 [Ec]4 | %10
w: |||||
 [DB]2 [B,D]2 [B,G]2 [DB]2 | B2 A2 A4 | B2 d2 [=Fd]4 | [Ec]2 [CE]2 [Ec]4 | BBGA B2 A2 | %15
w: |||||
 [B,G]6 z2 |] %16
w: |
V:2
 [G,,G,]2 [G,,D,]2 [G,,D,]2 [G,,G,]2 | [C,G,]2 [C,E,]2 [G,,D,]4 | %2
 [D,F,D][D,F,D][D,F,D][D,F,D] [D,E,D]2 [D,F,D]2 | [G,D]6 z2 | [G,,G,]2 [G,,D,]2 [G,,D,]2 [G,,G,]2 | %5
 [C,G,]2 [C,E,]2 [G,,D,]4 | [D,F,C][D,F,C][D,F,C][D,F,C] [D,G,D]2 [D,F,C]2 | [G,,G,]6 z2 | %8
 [G,DG]2 [G,B,G]2 [G,B,G]4 | [C,G,]2 [C,G,]2 [C,G,]4 | [G,,G,]2 [G,,G,]2 [G,,G,]2 [G,,G,]2 | %11
 [D,G,D]2 [D,F,D]2 [D,F,D]4 | [G,D]2 [G,B,D]2 [B,,G,]4 | [C,G,]2 [C,G,]2 [C,G,]4 | %14
 [D,G,D][D,G,D][D,G,B,][D,G,C] [D,G,D]2 [D,F,D]2 | [G,,G,]6 z2 |] %16

